X: 20053
T: O RARE LONDON TOWN
C: Hook.
Q: "With spirit."
%R: jig
B: W. Hamilton "Universal Tune-Book" Vol. 2 Glasgow 1846 p.5 #3
S: http://s3-eu-west-1.amazonaws.com/itma.dl.printmaterial/book_pdfs/hamiltonvol2web.pdf
Z: 2016 John Chambers <jc:trillian.mit.edu>
M: 6/8
L: 1/8
K: Bb
%%stretchstaff 0
% - - - - - - - - - - - - - - - - - - - - - - - - -
F |\
B2B BAB | c2c f2f | d2d b2b | a3  fga |\
b2g a2f | gab fed | cde GcB | AGA FGA |
B2B BAB | c2c f2f | d2d b2b | a3  fga |\
bag agf | gfe fed | b3  f2e | d2c B2  |]
F |\
B2B BAB | c2c f2f | d2d b2b | a3  fga |\
b2g a2f | gab fed | b3  f2e | d2c B2  |]
% - - - - - - - - - - - - - - - - - - - - - - - - -
